svg/24/logo-adobe-character-animator.svg

<svg width="24" height="24" viewBox="0 0 24 24" fill="currentColor" xmlns="http://www.w3.org/2000/svg"><path fill-rule="evenodd" clip-rule="evenodd" d="M6.03876 3H17.9618C19.7695 3 21.2311 4.46154 21.2311 6.26923V17.7308C21.2311 19.5385 19.7695 21 17.9618 21H6.03876C4.23107 21 2.76953 19.5385 2.76953 17.7308V6.26923C2.76953 4.46154 4.23107 3 6.03876 3ZM11.6001 14.1768V15.4537C11.6078 15.5307 11.5693 15.5999 11.5001 15.6307C11.2616 15.7153 11.0232 15.7691 10.7693 15.7999C10.4462 15.8383 10.1232 15.8537 9.80008 15.8537C9.33854 15.8537 8.877 15.7999 8.43085 15.6845C8.01547 15.5768 7.61547 15.4076 7.24623 15.1768C6.89239 14.9537 6.5847 14.6691 6.33085 14.3383C6.06931 13.9922 5.86162 13.5999 5.73854 13.1845C5.59239 12.6999 5.52316 12.1999 5.53085 11.6999C5.53085 10.8691 5.71547 10.1307 6.077 9.49989C6.43854 8.86912 6.977 8.35373 7.62316 8.02296C8.36162 7.64604 9.1847 7.45373 10.0155 7.46912C10.3385 7.46912 10.6539 7.4845 10.977 7.51527C11.2001 7.53835 11.4155 7.59219 11.6308 7.66143C11.677 7.69989 11.7001 7.75373 11.6924 7.80758V9.19989C11.6924 9.27681 11.6616 9.29989 11.6078 9.27681C11.377 9.16912 11.1232 9.09219 10.8693 9.05373C10.5693 9.00758 10.2693 8.9845 9.96162 8.9845C9.46162 8.97681 8.96931 9.09219 8.53854 9.33066C8.15393 9.54604 7.83085 9.86143 7.62316 10.2537C7.40008 10.6845 7.29239 11.1614 7.30008 11.646C7.29239 11.9922 7.34623 12.3307 7.45393 12.6614C7.54623 12.9383 7.69239 13.1922 7.8847 13.4153C8.05393 13.623 8.26931 13.7922 8.50008 13.923C8.73085 14.046 8.977 14.1383 9.23854 14.1999C9.4847 14.2691 9.74623 14.3076 10.0001 14.3153C10.277 14.3153 10.5616 14.3076 10.8385 14.2768C11.0693 14.246 11.2924 14.1922 11.5078 14.1076C11.5385 14.0845 11.5616 14.0768 11.5847 14.0922C11.6001 14.1153 11.6078 14.146 11.6001 14.1768ZM14.4465 15.5922V11.2537C14.5849 11.146 14.7465 11.0614 14.9157 10.9922C15.0926 10.9383 15.2772 10.9152 15.4619 10.9152C15.6619 10.9075 15.8619 10.9537 16.0311 11.0537C16.1772 11.1537 16.2849 11.2922 16.3542 11.446C16.4388 11.6537 16.4772 11.8768 16.4695 12.0999V15.5922C16.4772 15.6537 16.5311 15.6922 16.5926 15.6845H18.0465C18.1157 15.6845 18.1465 15.6537 18.1465 15.5768V11.9306C18.1465 11.4306 18.0849 11.0152 17.9619 10.6999C17.8388 10.3845 17.6926 10.1306 17.4849 9.94601C17.2849 9.77678 17.0542 9.6537 16.808 9.58447C16.5772 9.51524 16.3311 9.47678 16.0849 9.47678C15.7388 9.47678 15.4388 9.49986 15.1772 9.59216C14.9234 9.68447 14.6849 9.80755 14.4619 9.9537L14.4542 7.03063V7.00755C14.4542 6.96909 14.408 6.93832 14.3695 6.94601H12.808C12.7388 6.94601 12.708 6.97678 12.708 7.03063V15.6075C12.7157 15.6614 12.7619 15.6999 12.8157 15.6922H14.3619C14.4157 15.6922 14.4465 15.6614 14.4465 15.5922Z"/></svg>

<svg xmlns="http://www.w3.org/2000/svg" width="24" height="24" fill="currentColor" viewBox="0 0 24 24">
  <path fill-rule="evenodd" d="M6.039 3h11.923a3.267 3.267 0 0 1 3.27 3.27v11.46a3.267 3.267 0 0 1-3.27 3.27H6.039a3.266 3.266 0 0 1-3.27-3.27V6.27A3.266 3.266 0 0 1 6.04 3ZM11.6 14.177v1.277a.17.17 0 0 1-.1.177 3.367 3.367 0 0 1-.73.169 8.2 8.2 0 0 1-.97.054c-.461 0-.923-.054-1.37-.17a4.24 4.24 0 0 1-1.184-.507 3.523 3.523 0 0 1-.915-.839 3.65 3.65 0 0 1-.592-1.153A4.878 4.878 0 0 1 5.53 11.7c0-.83.184-1.57.546-2.2.362-.63.9-1.146 1.546-1.477a5.063 5.063 0 0 1 2.392-.554c.323 0 .639.015.962.046.223.023.438.077.654.146a.16.16 0 0 1 .061.147V9.2c0 .077-.03.1-.084.077a2.733 2.733 0 0 0-.739-.223c-.3-.046-.6-.07-.907-.07-.5-.007-.993.108-1.423.347-.385.215-.708.53-.916.923-.223.43-.33.907-.323 1.392-.008.346.046.685.154 1.015.092.277.238.531.43.754.17.208.385.377.616.508.23.123.477.215.739.277.246.07.507.108.761.115.277 0 .562-.007.838-.038.231-.031.454-.085.67-.17.03-.022.054-.03.077-.015a.107.107 0 0 1 .015.085Zm2.847 1.415v-4.338c.138-.108.3-.193.469-.262.177-.054.361-.077.546-.077.2-.007.4.039.57.139a.94.94 0 0 1 .322.392c.085.208.123.43.116.654v3.492c.007.062.061.1.123.092h1.454c.069 0 .1-.03.1-.107V11.93c0-.5-.062-.916-.185-1.231-.123-.316-.27-.57-.477-.754-.2-.17-.43-.292-.677-.362a2.532 2.532 0 0 0-.723-.107c-.346 0-.646.023-.908.115a3.468 3.468 0 0 0-.715.362l-.008-2.923v-.023c0-.039-.046-.07-.085-.062h-1.561c-.07 0-.1.03-.1.085v8.576c.008.054.054.093.108.085h1.546c.054 0 .085-.03.085-.1Z" clip-rule="evenodd"/>
</svg>
